static/assets/img/icons/theme/design/border.svg

<svg height="24" viewBox="0 0 24 24" width="24" xmlns="http://www.w3.org/2000/svg"><g fill="none" fill-rule="evenodd"><path d="m0 0h24v24h-24z" opacity="0"/><path d="m7 6c-.55228475 0-1 .44771525-1 1v10c0 .5522847.44771525 1 1 1h10c.5522847 0 1-.4477153 1-1v-10c0-.55228475-.4477153-1-1-1zm0-2h10c1.6568542 0 3 1.34314575 3 3v10c0 1.6568542-1.3431458 3-3 3h-10c-1.65685425 0-3-1.3431458-3-3v-10c0-1.65685425 1.34314575-3 3-3z" fill="#000" fill-rule="nonzero"/></g></svg>

<svg width="24px" height="24px" viewBox="0 0 24 24" version="1.1" xmlns="http://www.w3.org/2000/svg" xmlns:xlink="http://www.w3.org/1999/xlink">
    <title>Icon For Border</title>
    <g stroke="none" stroke-width="1" fill="none" fill-rule="evenodd">
        <rect opacity="0" x="0" y="0" width="24" height="24"></rect>
        <path d="M7,6 C6.44771525,6 6,6.44771525 6,7 L6,17 C6,17.5522847 6.44771525,18 7,18 L17,18 C17.5522847,18 18,17.5522847 18,17 L18,7 C18,6.44771525 17.5522847,6 17,6 L7,6 Z M7,4 L17,4 C18.6568542,4 20,5.34314575 20,7 L20,17 C20,18.6568542 18.6568542,20 17,20 L7,20 C5.34314575,20 4,18.6568542 4,17 L4,7 C4,5.34314575 5.34314575,4 7,4 Z" fill="#000000" fill-rule="nonzero"></path>
    </g>
</svg>
